X: 182
T: Les Trois Grands Luthiers
C: J. Scott Skinner 1904
R: strathspey
Z: 2019 John Chambers <jc:trillian.mit.edu>
M: C
L: 1/16
K: A
%%continueall 1
V: 1 nm=Viol.1 % nm=Vl.2
[|!p!\
"A"(E2FG) ({G}A3B) ("E7"AGFG) "A"(A2E2) | (E2FG) "F#m"(A3c) ("B7"cBBF) "E"{F}G4 |\
"A"(E2FG) ({G}A3B) ("E7"AGFG) "A"(A2c2) | (e2A2) "D"(d2c{e}d) "E7"(B3A) "A"HA4 |
"A"(c2de) (A2Bc) ("E7"d2"A"c2) "E7"{c}B2"A"A2 | "E7"(G2AB) "A/e"(E2A2) "B7"(G2{E}F2) "E7"E3E |\
"A"(E2FG) "A"(A3B) "E7"(AG).F.G "A"(A2c2) | "A7"e2A2 "D"d2(c{d}d) "E7"B3A "A"HA4 |]
V: 2 nm=Viol.2 % nm=Vl.2
[|!p!\
[E4C4] [E4C4] [E2D2][E2D2] [E4C4] | [E4C4] [F4C4] [A4^D4] [F2E2]E2 |!p!\
[E4C4] [E4C4] [E2D2][E2D2] [E4C4] |"_cresc." [A4E4] [A4F4] [E4D4] H[E4C4] |
!mf!(CEAE) (CEGA) (BE)(AE) (GE)(AE) | (DEDE) (CECE) (B,E^DB,) "_rall."(G,B,)=D2 |\
"_a tempo".[EC].[EC].[EC].[EC] .[EC].[EC].[EC].[EC] .[ED].[ED].[ED].[ED] .[EC].[EC].[EC].[EC] |\
.[=GA,].[GA,].[GA,].[GA,] .[FA,].[FA,].[FC].[FC] "_rit."(E2D2) !pp!C4 |]
V: Cello nm=Cello clef=bass middle=d
[|!p!\
A4 a4 b2e2 a4 | a4 f4 B4 (edcB) |!p!\
A4 a4 b2e2 a4 | "_cresc."c4 d4 e4 HA4 |
!mf!a4 A4 G2A2 d2c2 | e4 e4 B2B2 "_rall."e2g2 |\
!p!.a2.a2 A2.A2 .g2.e2 .a2.e2 | .c2.c2 .d2.B2 "_rit."(e2E2) !pp!HA4 |]
%%text The Viol.2 & Cello parts are bracketed, with "or Piano" to the left.
%%begintext align
%% To the immortal memory of Amati, Strativarius, and Guarnerius.
%% This melody is dedicated to Croall's famous quartett.
%% 16 Abercromby Place, Edinburgh.
%%endtext

%%sep 1 1 500

